X:51
T: Das Meydenburger Lied
N: A0405
O: Europa, Mitteleuropa, Deutschland
N: Coelner Gsgb. 1610.
R: Romanze, Ballade, Lied, Kriegslied
M: 4/2
L: 1/4
K: F
F2 | F2G2A2B2 | c4c2
c2 | B2A2B2cB | A4z2
A2 | A2c2B2A2 | G3FE2
F2 | A2B2A2G2 | F4z2

@@@ Tune index: 364
